public/advantage-support.svg

<svg width="103" height="125" viewBox="0 0 103 125" fill="none" xmlns="http://www.w3.org/2000/svg">
<path d="M51.4404 105.374C51.1764 105.37 50.9243 105.264 50.7376 105.077C50.5509 104.89 50.4443 104.638 50.4404 104.374V50.174C50.4415 49.9995 50.4882 49.8283 50.5759 49.6774C50.6636 49.5265 50.7893 49.4012 50.9404 49.314L101.48 20.134C101.632 20.0462 101.805 20 101.98 20C102.156 20 102.328 20.0462 102.48 20.134C102.637 20.2195 102.767 20.3453 102.859 20.4982C102.95 20.6512 102.999 20.8258 103 21.004V75.194C102.999 75.3685 102.953 75.5397 102.865 75.6906C102.777 75.8414 102.652 75.9667 102.5 76.054L51.9404 105.234C51.789 105.324 51.6165 105.372 51.4404 105.374ZM52.4404 50.754V102.634L100.98 74.634V22.734L52.4404 50.754Z" fill="#1B69FF"/>
<path fill-rule="evenodd" clip-rule="evenodd" d="M1.58 22.3628V74.7328L50.54 103.003V50.6328L1.58 22.3628ZM51.33 105.163C51.1932 105.157 51.0597 105.119 50.94 105.053L0.39 75.8728C0.271444 75.8032 0.173107 75.7038 0.104708 75.5846C0.0363093 75.4653 0.000217435 75.3303 0 75.1928L0 21.0028C0 20.7959 0.0821783 20.5975 0.228457 20.4513C0.374735 20.305 0.573131 20.2228 0.78 20.2228C0.919834 20.2201 1.05787 20.2546 1.18 20.3228L51.72 49.5028C51.8386 49.5724 51.9369 49.6718 52.0053 49.791C52.0737 49.9103 52.1098 50.0453 52.11 50.1828V104.373C52.1098 104.51 52.0737 104.645 52.0053 104.765C51.9369 104.884 51.8386 104.983 51.72 105.053C51.6003 105.119 51.4668 105.157 51.33 105.163Z" fill="#1B69FF"/>
<path d="M14.4302 61.7228C14.8302 63.4428 14.0802 63.9228 12.5102 63.0728C10.9402 62.2228 10.8802 62.3228 11.5102 64.1828C11.6975 64.5264 11.7956 64.9115 11.7956 65.3028C11.7956 65.6942 11.6975 66.0792 11.5102 66.4228C10.9602 67.1828 11.1202 67.5528 12.2602 68.5228C14.6102 70.5228 16.9635 72.5228 19.3202 74.5228C21.1002 76.0228 22.2202 75.5228 21.7702 73.4228C21.7221 73.1238 21.6381 72.8317 21.5202 72.5528C20.0702 69.4528 18.6302 66.3428 17.1102 63.2428C16.9556 62.7985 16.6912 62.4005 16.3415 62.0858C15.9918 61.7711 15.5682 61.5499 15.1102 61.4428H14.9502C14.7783 61.0296 14.6982 60.584 14.7155 60.1368C14.7327 59.6897 14.8469 59.2516 15.0502 58.8528C15.6602 57.7728 16.2202 56.6428 16.8902 55.6428C17.4285 54.9012 18.0236 54.2024 18.6702 53.5528C18.8587 53.3415 19.0862 53.1683 19.3402 53.0428C20.7402 52.3328 21.3402 50.5328 20.8902 48.2028C20.6968 46.4893 20.6734 44.7609 20.8202 43.0428C21.0102 40.1928 23.3802 39.7428 26.3802 41.8628C30.1602 44.5228 32.4802 48.8628 32.3802 52.7128C32.3525 56.2476 33.3343 59.7168 35.2102 62.7128C37.0542 65.8536 38.3368 69.2917 39.0002 72.8728C39.1116 73.3827 39.1786 73.9013 39.2002 74.4228C39.2002 75.4228 39.2002 76.4228 38.2002 76.4228C37.8714 76.5157 37.5718 76.6913 37.3302 76.9328C36.3302 77.5228 34.0802 76.3328 33.4602 74.0728C33.2531 73.6476 33.0017 73.2453 32.7102 72.8728C32.5002 73.0628 32.1502 73.1528 32.1102 73.4628C32.0346 74.1101 32.065 74.7653 32.2002 75.4028C32.4897 76.7188 32.5067 78.0801 32.2502 79.4028C32.2445 79.446 32.2445 79.4897 32.2502 79.5328C32.1568 80.061 32.1801 80.6031 32.3183 81.1213C32.4565 81.6395 32.7063 82.1213 33.0502 82.5328C33.9402 83.5928 35.0502 84.0928 35.7502 83.7428C37.2216 83.4136 38.7543 83.4826 40.1902 83.9428C40.561 84.0447 40.9467 84.0819 41.3302 84.0528C41.9302 84.0528 41.9202 83.5828 41.3302 82.7928C41.0102 82.4028 40.6702 82.0228 40.3302 81.6728C39.0602 80.2528 38.5602 78.3828 39.1902 77.4728L39.2602 77.3828C39.3377 77.6493 39.4011 77.9197 39.4502 78.1928C39.5731 79.6099 40.156 80.9479 41.1102 82.0028L41.5002 82.4728C42.4302 83.7028 42.5002 84.4728 41.6002 84.6228C40.9773 84.6579 40.353 84.6579 39.7302 84.6228C38.3913 84.634 37.0548 84.7376 35.7302 84.9328C34.3402 85.2128 32.3202 83.7928 31.1902 81.7228C30.9126 81.1813 30.5201 80.7069 30.0402 80.3328C28.0002 79.0028 26.0002 77.7628 23.9302 76.6628C23.2611 76.3222 22.5043 76.1932 21.7602 76.2928C21.1408 76.2891 20.5296 76.1513 19.9686 75.8889C19.4076 75.6265 18.91 75.2458 18.5102 74.7728C16.3802 72.8328 14.2202 70.9928 12.0802 69.1128C11.8402 68.9028 11.5902 68.7028 11.3602 68.4728C10.4602 67.5928 10.1002 66.7928 10.5102 66.1728C10.7536 65.6607 10.8931 65.1053 10.9206 64.5389C10.948 63.9724 10.8629 63.4062 10.6702 62.8728C10.4002 61.6428 10.7802 61.4028 11.8602 61.9928L12.1602 62.1628C13.2502 62.9028 14.2202 62.7028 14.4302 61.7228ZM23.1702 75.4928C23.6502 74.8928 22.8102 73.7528 22.4502 72.6328C22.7802 72.8328 23.0902 72.9328 23.2202 73.1228C24.0374 74.279 25.1445 75.1998 26.4302 75.7928C28.0602 76.6828 29.5302 77.1328 30.4902 76.1928C30.5902 76.0928 30.8402 76.1928 31.0202 76.1928C31.1302 76.4528 31.3502 76.7928 31.3302 76.9428C31.2302 77.6628 31.0602 78.3228 30.9302 79.0128C30.8602 79.3328 30.8302 79.6628 30.7702 80.0128L31.0502 80.2128C31.5189 78.7965 31.6825 77.2969 31.5302 75.8128C31.4202 75.0128 31.4002 74.2628 31.3002 73.4728C31.0602 71.7828 32.5602 72.3928 33.2102 71.8828C33.3576 71.8089 33.5202 71.7705 33.6852 71.7705C33.8501 71.7705 34.0127 71.8089 34.1602 71.8828C34.6782 72.1517 35.1792 72.4522 35.6602 72.7828C35.5117 72.426 35.4206 72.0481 35.3902 71.6628C35.6487 70.1663 35.5424 68.6295 35.0802 67.1828C34.8202 66.3228 34.5002 65.4528 34.1402 64.5828C34.2482 65.1835 34.4123 65.7727 34.6302 66.3428C35.262 67.8798 35.4892 69.5531 35.2902 71.2028C35.1002 71.9428 34.6102 72.0828 33.9102 71.5628C33.6174 71.3671 33.3866 71.0918 33.2449 70.7694C33.1032 70.447 33.0564 70.0909 33.1102 69.7428C33.4502 66.2428 31.2802 62.0228 30.1102 58.0928C30.0729 58.0033 30.0294 57.9164 29.9802 57.8328C29.6389 57.3708 29.4105 56.8354 29.3132 56.2693C29.216 55.7032 29.2526 55.1222 29.4202 54.5728C29.6302 54.1328 29.4202 53.6528 28.8402 53.1128C28.2602 52.5728 27.7402 51.9728 27.1802 51.4128C26.9201 51.1887 26.7355 50.8899 26.6514 50.5571C26.5673 50.2242 26.5878 49.8736 26.7102 49.5528C26.7102 49.0628 27.1802 48.9328 27.7102 49.2728C28.0031 49.4686 28.2515 49.7237 28.4393 50.0218C28.6271 50.3199 28.75 50.6541 28.8002 51.0028C28.8399 51.462 28.8399 51.9237 28.8002 52.3828C29.2602 52.7928 29.4602 52.7328 29.4902 52.2528C29.604 51.5011 29.5126 50.7326 29.2257 50.0285C28.9388 49.3244 28.467 48.7109 27.8602 48.2528C27.4876 48.0397 27.0564 47.952 26.6302 48.0028C25.7802 48.1128 25.9902 49.2328 26.0102 50.1628C25.6802 49.9128 25.3302 49.6828 25.0102 49.4728C24.7738 49.3756 24.5725 49.2087 24.4332 48.9943C24.2939 48.78 24.2231 48.5284 24.2302 48.2728C24.1812 47.6938 24.0499 47.1248 23.8402 46.5828C23.4602 45.5828 22.7602 45.1928 22.3102 45.5828C22.0619 46.0476 21.9404 46.5696 21.958 47.0962C21.9755 47.6229 22.1315 48.1356 22.4102 48.5828C22.4102 48.6528 22.5602 48.7028 22.5302 48.6828C22.36 48.1103 22.2592 47.5194 22.2302 46.9228C22.2586 46.8504 22.3014 46.7845 22.3559 46.729C22.4104 46.6734 22.4755 46.6294 22.5473 46.5996C22.6191 46.5697 22.6963 46.5546 22.7741 46.5552C22.8519 46.5557 22.9287 46.5719 23.0002 46.6028C23.3714 46.912 23.6514 47.3165 23.8102 47.7728C23.9184 48.2551 23.9421 48.7525 23.8802 49.2428C23.8802 49.3628 23.7102 49.4128 23.5802 49.4228C23.1205 49.3978 22.6598 49.3978 22.2002 49.4228C22.0702 49.4228 22.0002 49.8228 22.0802 49.9528C22.4819 50.7467 22.9974 51.4777 23.6102 52.1228C24.8976 53.2288 26.543 53.8294 28.2402 53.8128C28.4328 53.8149 28.6244 53.8418 28.8102 53.8928C28.8102 53.8928 28.9802 54.2528 28.9502 54.2828C28.9 54.3459 28.836 54.3967 28.7633 54.4314C28.6905 54.466 28.6108 54.4836 28.5302 54.4828C27.7541 54.3806 26.9858 54.227 26.2302 54.0228C25.3502 53.7628 24.4402 53.3628 23.3302 52.9528C23.6872 53.3816 24.0895 53.7706 24.5302 54.1128C25.1419 54.4427 25.7941 54.6915 26.4702 54.8528C27.0302 54.9928 27.5202 54.8528 28.0702 54.9928C28.2502 54.9928 28.5102 55.3128 28.7302 55.4828C28.6302 55.6028 28.5702 55.8128 28.4202 55.8128C27.4202 55.8728 26.3602 55.9128 25.3102 55.9128C24.7602 56.0728 23.9302 55.5028 23.4602 54.6628C23.4102 54.5728 23.3702 54.4828 23.3302 54.3928C22.9602 53.7328 22.6402 53.0628 22.3302 52.4628C21.9088 53.0135 21.5405 53.6028 21.2302 54.2228C21.0507 54.8434 20.9301 55.4796 20.8702 56.1228C20.8803 56.2869 20.842 56.4503 20.7602 56.5928C19.3302 57.5328 18.5902 59.3628 18.6802 61.7328C18.6309 62.094 18.4935 62.4374 18.2802 62.7328C17.9702 62.1828 17.6402 61.6328 17.3302 61.0728C17.2778 60.9671 17.2504 60.8508 17.2502 60.7328C17.1802 60.0928 17.1302 59.4628 17.0702 58.8328C16.9332 59.5655 16.9515 60.3187 17.1237 61.0439C17.2959 61.769 17.6184 62.45 18.0702 63.0428C19.4502 65.0428 20.8202 67.0428 22.1802 69.1028C22.8402 70.1028 23.0602 70.9228 22.7002 71.3028C22.4551 71.4712 22.1745 71.5808 21.8802 71.6228L23.1702 75.4928Z" fill="#1B69FF"/>
<path d="M63.5498 69.1159V53.2359L76.4198 45.8359V61.5659C76.4198 61.7259 76.4198 61.7059 76.2998 61.7759L63.6598 69.0559C63.6211 69.072 63.5843 69.0922 63.5498 69.1159Z" fill="#1B69FF"/>
<path d="M77.8496 45.0055L90.7096 37.6055V53.4855L90.6096 53.5455L77.9996 60.8155C77.8796 60.8955 77.8896 60.9055 77.8896 60.7455V45.1555C77.8712 45.107 77.8578 45.0567 77.8496 45.0055Z" fill="#1B69FF"/>
<path d="M76.4198 79.3544L63.5498 86.7544V70.8844L63.6598 70.8144L76.2898 63.5444C76.4198 63.4744 76.4098 63.4644 76.4098 63.6244V79.2144C76.4077 79.2613 76.4111 79.3083 76.4198 79.3544Z" fill="#1B69FF"/>
<path d="M90.7196 55.2539V71.1339L77.8496 78.5339V62.8039C77.8496 62.6439 77.8496 62.6639 77.9696 62.5939L90.6096 55.3239L90.7196 55.2539Z" fill="#1B69FF"/>
</svg>

<svg xmlns="http://www.w3.org/2000/svg" width="103" height="125" fill="none" viewBox="0 0 103 125"><path fill="#1b69ff" d="M51.44 105.374a1.014 1.014 0 0 1-1-1v-54.2a1 1 0 0 1 .5-.86l50.54-29.18a1 1 0 0 1 1 0 1 1 0 0 1 .52.87v54.19a1 1 0 0 1-.5.86l-50.56 29.18a1 1 0 0 1-.5.14m1-54.62v51.88l48.54-28v-51.9z"/><path fill="#1b69ff" fill-rule="evenodd" d="M1.58 22.363v52.37l48.96 28.27v-52.37zm49.75 82.8a.9.9 0 0 1-.39-.11L.39 75.873a.79.79 0 0 1-.39-.68v-54.19a.78.78 0 0 1 .78-.78.8.8 0 0 1 .4.1l50.54 29.18a.79.79 0 0 1 .39.68v54.19a.8.8 0 0 1-.39.68.9.9 0 0 1-.39.11" clip-rule="evenodd"/><path fill="#1b69ff" d="M14.43 61.723c.4 1.72-.35 2.2-1.92 1.35s-1.63-.75-1 1.11a2.34 2.34 0 0 1 0 2.24c-.55.76-.39 1.13.75 2.1q3.525 3 7.06 6c1.78 1.5 2.9 1 2.45-1.1a3.8 3.8 0 0 0-.25-.87c-1.45-3.1-2.89-6.21-4.41-9.31a2.79 2.79 0 0 0-2-1.8h-.16a3.09 3.09 0 0 1 .1-2.59c.61-1.08 1.17-2.21 1.84-3.21a18 18 0 0 1 1.78-2.09 2.2 2.2 0 0 1 .67-.51c1.4-.71 2-2.51 1.55-4.84a26 26 0 0 1-.07-5.16c.19-2.85 2.56-3.3 5.56-1.18 3.78 2.66 6.1 7 6 10.85a18.57 18.57 0 0 0 2.83 10A31.3 31.3 0 0 1 39 72.873q.168.766.2 1.55c0 1 0 2-1 2a2 2 0 0 0-.87.51c-1 .59-3.25-.6-3.87-2.86a6.7 6.7 0 0 0-.75-1.2c-.21.19-.56.28-.6.59a6 6 0 0 0 .09 1.94 9.9 9.9 0 0 1 .05 4 .5.5 0 0 0 0 .13 3.68 3.68 0 0 0 .8 3c.89 1.06 2 1.56 2.7 1.21a8.5 8.5 0 0 1 4.44.2c.371.102.757.139 1.14.11.6 0 .59-.47 0-1.26-.32-.39-.66-.77-1-1.12-1.27-1.42-1.77-3.29-1.14-4.2l.07-.09q.117.4.19.81a6.52 6.52 0 0 0 1.66 3.81l.39.47c.93 1.23 1 2 .1 2.15q-.935.052-1.87 0a29 29 0 0 0-4 .31c-1.39.28-3.41-1.14-4.54-3.21a4.2 4.2 0 0 0-1.15-1.39c-2.04-1.33-4.04-2.57-6.11-3.67a3.7 3.7 0 0 0-2.17-.37 4.29 4.29 0 0 1-3.25-1.52c-2.13-1.94-4.29-3.78-6.43-5.66-.24-.21-.49-.41-.72-.64-.9-.88-1.26-1.68-.85-2.3a4.3 4.3 0 0 0 .16-3.3c-.27-1.23.11-1.47 1.19-.88l.3.17c1.09.74 2.06.54 2.27-.44m8.74 13.77c.48-.6-.36-1.74-.72-2.86.33.2.64.3.77.49a8.07 8.07 0 0 0 3.21 2.67c1.63.89 3.1 1.34 4.06.4.1-.1.35 0 .53 0 .11.26.33.6.31.75-.1.72-.27 1.38-.4 2.07-.07.32-.1.65-.16 1l.28.2a10.6 10.6 0 0 0 .48-4.4c-.11-.8-.13-1.55-.23-2.34-.24-1.69 1.26-1.08 1.91-1.59a1.06 1.06 0 0 1 .95 0q.779.404 1.5.9a3.7 3.7 0 0 1-.27-1.12 9.44 9.44 0 0 0-.31-4.48c-.26-.86-.58-1.73-.94-2.6.108.6.272 1.19.49 1.76a9.7 9.7 0 0 1 .66 4.86c-.19.74-.68.88-1.38.36a1.85 1.85 0 0 1-.8-1.82c.34-3.5-1.83-7.72-3-11.65a2 2 0 0 0-.13-.26 3.68 3.68 0 0 1-.56-3.26c.21-.44 0-.92-.58-1.46s-1.1-1.14-1.66-1.7a1.67 1.67 0 0 1-.47-1.86c0-.49.47-.62 1-.28a2.5 2.5 0 0 1 1.09 1.73q.06.69 0 1.38c.46.41.66.35.69-.13a4.22 4.22 0 0 0-1.63-4 2 2 0 0 0-1.23-.25c-.85.11-.64 1.23-.62 2.16-.33-.25-.68-.48-1-.69a1.26 1.26 0 0 1-.78-1.2 6.1 6.1 0 0 0-.39-1.69c-.38-1-1.08-1.39-1.53-1a3 3 0 0 0 .1 3c0 .07.15.12.12.1a7.5 7.5 0 0 1-.3-1.76.58.58 0 0 1 .77-.32c.371.309.651.713.81 1.17.108.482.132.98.07 1.47 0 .12-.17.17-.3.18q-.69-.038-1.38 0c-.13 0-.2.4-.12.53a9.2 9.2 0 0 0 1.53 2.17 7 7 0 0 0 4.63 1.69q.29.003.57.08s.17.36.14.39a.53.53 0 0 1-.42.2 18 18 0 0 1-2.3-.46c-.88-.26-1.79-.66-2.9-1.07.357.429.76.818 1.2 1.16.612.33 1.264.578 1.94.74.56.14 1.05 0 1.6.14.18 0 .44.32.66.49-.1.12-.16.33-.31.33-1 .06-2.06.1-3.11.1-.55.16-1.38-.41-1.85-1.25-.05-.09-.09-.18-.13-.27-.37-.66-.69-1.33-1-1.93-.421.55-.79 1.14-1.1 1.76-.18.62-.3 1.257-.36 1.9a.84.84 0 0 1-.11.47c-1.43.94-2.17 2.77-2.08 5.14-.05.361-.186.704-.4 1-.31-.55-.64-1.1-.95-1.66a.8.8 0 0 1-.08-.34c-.07-.64-.12-1.27-.18-1.9a5.33 5.33 0 0 0 1 4.21c1.38 2 2.75 4 4.11 6.06.66 1 .88 1.82.52 2.2a1.9 1.9 0 0 1-.82.32zM63.55 69.116v-15.88l12.87-7.4v15.73c0 .16 0 .14-.12.21l-12.64 7.28a.6.6 0 0 0-.11.06M77.85 45.006l12.86-7.4v15.88l-.1.06L78 60.816c-.12.08-.11.09-.11-.07v-15.59a1 1 0 0 1-.04-.15M76.42 79.354l-12.87 7.4v-15.87l.11-.07 12.63-7.27c.13-.07.12-.08.12.08v15.59a.6.6 0 0 0 .01.14M90.72 55.254v15.88l-12.87 7.4v-15.73c0-.16 0-.14.12-.21l12.64-7.27z"/></svg>
